X:1
T:Adoro te
T:Adoro te
T:Mélanie "Mel" Bonis (1858-1937)
C:Mélanie "Mel" Bonis (1858-1937)
%%score [ 1 2 3 4 ]
L:1/8
Q:1/4=80
M:2/2
K:F
V:1 treble nm="Soprano"
V:2 treble nm="Alto"
V:3 treble-8 nm="Tenor"
V:4 bass nm="Bass"
V:1
 F4 A4 | A4 !breath!G4 |!<(! F4 c4!<)! |!>(! c4 B4 | B4 !breath!A4!>)! | A4 d4 | d4 !breath!c4 | %7
w: A- do-|ro te,|A- do-|ro te,|sup- plex,|A- do-|to te,|
 F4 B4 | B4 A4 |!>(! (A2 G4) F2!>)! | E3 E !breath!E4 | A4 c4- | c2"^cresc." A4 c2 | d4 e4- | %14
w: A- do-|ro te|la- * tens|De- i- tas|Quae sub|_ his fi-|gu- ris|
 !breath!e2 (c2 e2) f2 | g6 g2 |!>(! g8!>)! |!p! (G2 A2) B4 | B2"^cresc." A4 (d2- | %19
w: _ ve- * re|la- ti-|tas|Ti- * bi|se cor me-|
 d2 ^c4)!<(! d2 | (e2 f2)!<)! g4- | g2!>(! e2 (c2 B2)!>)! | !breath!A4 d4 | d4 ^c2 c2 | %24
w: * * um|to- * tum|_ sub- ji- *|cit qui-|a te con-|
!f!!<(! (c4 a4-!<)! | a2 g2) (f2 !breath!e2) |!>(! (_e2 d2) (c2 B2)!>)! |"^dim." (A4 c4) | %28
w: tem- *|* * plans _|to- * tum _|de- *|
"^cédez" A4 G4 |!pp!!<(! F4 A4!<)! |!>(! A4 !breath!G4!>)! |!<(! F4 A4!<)! |!>(! A4 G4!>)! | %33
w: fi- cit|A- do-|ro te,|A- do-|ro te,|
!<(! (F4 G4) | (A4 B4)!<)! |!>(! c8- | c8 | c8- | c4!>)! z4 |!p! A4 A2 A2 | B4 B4 | c6 c2 | %42
w: A- *|do- *|ro|_|te|_|O me- mo-|ria- le|mor- tis|
 ^c3 c c4 |"^cresc." =c4 c4 |"^cresc." d4 d4 | d2 d2 d2 d2 | e3 e e4 |!f! e4 g4- | g2 (e2 d2) c2 | %49
w: Do- mi- ni|pa- nis|vi- vus|vi- tam praes- tans|ho- mi- ni|Prae- sta|_ me- * ae|
 d4 e4- | !breath!e2!>(! c2 =B2 A2 | =B4!>)! c4 |"^dim." ^G4 A4 | =B4 c4 | (^G4 A4) | E8 | %56
w: men- ti|_ de te vi-|ve- re|Et te|il- li|sem- *|per|
!p! E4 E4 | E4 E4 | E8 |"^a tempo"!pp! (F4 A4) | (A4 G4) |!<(! F4 c4!<)! | (c4 B4) | %63
w: dul- ci|sa- pe-|re.|Je- *|su _|quem ve-|la- *|
!>(! (B4 A4)!>)! | (A4 d4) | (d4 c4) |"^dim." F4 B4 | B4 !breath!A4 | (A2 G4) F2 | %69
w: tum, _|Je- *|su _|quem ve-|la- tum,|nunc _ as-|
 E3 E !breath!E4 |!mp! A4 c4- | c2"^cresc." A4 c2 | d4 e4- | e2 c2 (e2 f2) | g6 g2 | g8 | %76
w: pi- ci- o|O- ro|_ fi- at|il- lud|_ quod tam _|si- ti-|o|
!p! (G2 A2) B4 | B2 (A4 d2) | d2 !breath!^c4 d2 |!<(! (e2 f2) (g4-!<)! |!>(! g2 e2) (c2 B2)!>)! | %81
w: Ut _ te|re- ve- *|la- ta cer-|nens _ fa-|* * ci- *|
 A4 d4 | d4 ^c4 |!<(! c4 (a4-!<)! | a2 g2) (f2 !breath!e2) | (_e2 d2) (c2 B2) | %86
w: e vi-|su sim|be- a-|* * tus _|tu- * ae _|
"^rit. et dim." (A4 c4- | c4)!>(! c4!>)! |"^a tempo"!p! c4 z4 | z8 |!p!!<(! (c4 f4)!<)! | %91
w: glo- *|* ri-|ae||A- *|
!>(! (d4 e4)!>)! |"^rit." f8- |"^dim." f8 | !fermata!f8 |] %95
w: men, _|a-||men.|
V:2
 C4 C4 | D4 !breath!E4 |!<(! F4 E4!<)! |!>(! D4 E4 | E4 !breath!F4!>)! | F4 F4 | E4 !breath!E4 | %7
w: A- do-|ro te,|A- do-|ro te,|sup- plex,|A- do-|to te,|
 D4 D4 | D4 ^C4 |!>(! D4 D4!>)! | D3 D ^C4 | C4 (F2 E2) | (D2 C2)"^cresc." (F2 A2) | %13
w: A- do-|ro te|la- tens|De- i- tas|Quae sub _|his _ fi- *|
 A4 !breath!^G4 | A4 c4 | c4 =B4 |!>(! c8!>)! |!p! E4 D4 | ^C4"^cresc." (D2 E2) | (F2 G2)!<(! A4 | %20
w: gu- ris|ve- re|la- ti-|tas|Ti- bi|se cor _|me- * um|
 B4!<)! B4 | B4!>(! (A2 G2)!>)! | !breath!F4 F4 | E4 E2 E2 |!f!!<(! (A2 G2 F2 E2)!<)! | %25
w: to- tum|sub- ji- *|cit qui-|a te con-|tem- * * *|
 (D4 !breath!G4) |!>(! F4 F4!>)! |"^dim." (F4 E4) |"^cédez" D4 E4 |!pp!!<(! _E4 D4!<)! | %30
w: plans _|to- tum|de- *|fi- cit|A- do-|
!>(! ^C4 !breath!D4!>)! |!<(! _E4 D4!<)! |!>(! ^C4 D4!>)! |!<(! (_E4 D4) | (_E4 F4)!<)! | %35
w: ro te,|A- do-|ro te,|A- *|do- *|
!>(! (F4 =E4 | D4 E4) | F8- | F4!>)! z4 |!p! (F2 E2) D2 C2 | (B,2 D2) (G2 F2) | E6 F2 | G3 G G4 | %43
w: ro _|_ _|te|_|O _ me- mo-|ria- * le _|mor- tis|Do- mi- ni|
"^cresc." (A2 G2) (F2 E2) |"^cresc." (D2 E2) (F2 ^F2) | G2 A2 B2 A2 | ^G3 G G4 |!f! A4 =B4 | %48
w: pa- * nis _|vi- * vus _|vi- ta praes- tans|ho- mi- ni|Prae- sta|
 c4 G4 | A4 !breath!^G4 | A4!>(! E2 E2 | F4!>)! E4 |"^dim." D4 C4 | F4 E4 | (D4 C4) | (C6 =B,2) | %56
w: me- ae|men- ti|de te vi-|ve- re|Et te|il- li|sem- *|per _|
!p! (D2 C4) =B,2 | (D2 C4) =B,2 | _B,8 |"^a tempo"!pp! (A,4 C4) | (D4 E4) |!<(! F4 E4!<)! | %62
w: dul- * ci|sa- * pe-|re.|Je- *|su _|quem ve-|
 (D4 E4) |!>(! (E4 F4)!>)! | F8 | E8 |"^dim." D4 D4 | D4 !breath!^C4 | D4 D4 | D3 D !breath!^C4 | %70
w: la- *|tum, _|Je-|su|quem ve-|la- tum,|nunc as-|pi- ci- o|
!mp! =C4 (F2 E2) | (D2"^cresc." C2) (F2 A2) | A4 ^G4 | A4 c4 | c4 =B4 | c8 |!p! E4 D2 D2 | %77
w: O- ro _|fi- * at _|il- lud|quod tam|si- ti-|o|Ut te re-|
 (^C4 D2 E2) | (F2 G2) !breath!A4 |!<(! B6!<)! B2 |!>(! (B4 A2) G2!>)! | F4 F4 | E4 E4 | %83
w: ve- * *|la- * ta|cer- nens|fa- * ci-|e vi-|su sim|
!<(! (A2 G2) (F2 E2)!<)! | (D4 G4) | F4 F4 |"^rit. et dim." (F4 E4) | D4!>(! E4!>)! | %88
w: be- * a- *|tus _|tu- ae|glo- *|ri- ae|
"^a tempo"!p! (F4 A4) | (A4 G4) |!<(! (F4 A4)!<)! |!>(! (A4 G4)!>)! |"^rit." (F2 _E2 D2 F2 | %93
w: A- *|men, _|a- *|men, _|a- * * *|
"^dim." B2 A2 G4) | !fermata!A8 |] %95
w: |men.|
V:3
 A4 A4 | B4 !breath!B4 |!<(! A4 A4!<)! |!>(! (B2 A2) G4 | c4 !breath!c4!>)! | d4 A4 | %6
w: A- do-|ro te,|A- do-|ro _ te,|sup- plex,|A- do-|
 A4 !breath!A4 | F4 F4 | E4 E4 |!>(! (D4 B2) A2!>)! | G3 G G4 | F4 A4 | F4"^cresc." A4 | %13
w: to te,|A- do-|ro te|la- * tens|De- i- tas|Quae sub|his fi-|
 =B4 !breath!B4 | c6 d2 | (d2 e2) f4 |!>(! (f4 e4)!>)! |!p! c4 G4 | G4 (A2 B2) | (d2 e2) f4 | %20
w: gu- ris|ve- re|la- * ti-|tas _|Ti- bi|se cor _|me- * um|
 g4 g2 f2 | e4 !breath!e4 | f4 d4 | B4 A4 |!f!!<(! (A4 c4)!<)! | (d4 !breath!c4) | %26
w: to- tum sub-|ji- cit|qui- a|te con-|tem- *|plans _|
!>(! (c2 B2) (A2 B2)!>)! |"^dim." (c4 A4) |"^cédez" B4 B4 |!pp!!<(! A4 A4!<)! | %30
w: to- * tum _|de- *|fi- cit|A- do-|
!>(! B4 !breath!B4!>)! |!<(! A4 A4!<)! |!>(! B4 B4!>)! |!<(! (A4 B4) | (c4 d4)!<)! | %35
w: ro te,|A- do-|ro te,|A- *|do- *|
!>(! (B2 A2 G4- | G2 A2 B4) | (B4 A4- | A4)!>)! z4 | z8 |!p! (g2 f2) e2 d2 | c2 c2 B2 A2 | %42
w: ro _ _|_ _ _|te _|_||O _ me- mo-|ria- le mor- tis|
 (G2 A2) B2 A2 | z4"^cresc." a2 g2 |"^cresc." (f2 g2) a4 | d2 d2 d2 A2 | =B3 B B4 |!f! c4 d4 | %48
w: Do- * mi- ni|pa- nis|vi- * vus|vi- tam praes- tans|ho- mi- ni|Prae- sta|
 e4 e4 | A4 !breath!=B4 | c4!>(! c2 c2 | ^G4!>)! A4 |"^dim." =B4 A4 | ^G4 A4 | (=B4 A4) | %55
w: me- ae|men- ti|de te vi-|ve- re|Et te|il- li|sem- *|
 (=G4 ^G4) |!p! A4 ^G4 | A4 ^G4 | =G8 |"^a tempo"!pp! F8 | B8 |!<(! A8!<)! | (B2 A2) G4 | %63
w: per _|dul- ci|sa- pe-|re.|Je-|su|quem|ve- * la-|
!>(! (G4 A4)!>)! | A8 | A8 |"^dim." F4 F4 | E4 !breath!E4 | D4 (B2 A2) | G3 G !breath!G4 | %70
w: tum, _|Je-|su|quem ve-|la- tum,|nunc as- *|pi- ci- o|
!mp! F4 A4 | F4"^cresc." A4 | =B4 B4 | c6 d2 | (d2 e2) f4 | (f4 e4) |!p! c4 G2 G2 | (G4 A2 B2) | %78
w: O- ro|fi- at|il- lud|quod tam|si- * ti-|o _|Ut te re-|ve- * *|
 (d2 e2) !breath!f4 |!<(! g6!<)! f2 |!>(! e6 e2!>)! | f4 d4 | B4 A4 |!<(! A4 c4!<)! | (d4 c4) | %85
w: la- * ta|cer- nens|fa- ci-|e vi-|su sim|be- a-|tus _|
 (c2 B2) (A2 B2) |"^rit. et dim." (c4 A4) | (B2 A2)!>(! G4!>)! |"^a tempo"!p! (A4 c4) | (d4 B4) | %90
w: tu- * ae _|glo- *|ri- * ae|A- *|men, _|
!<(! (_e4 d4)!<)! |!>(! (B4 c4)!>)! |"^rit." (A4 B4 |"^dim." d4 B4) | !fermata!c8 |] %95
w: a- *|men, _|a- *||men.|
V:4
 F,4 F,4 | F,4 !breath!F,4 |!<(! F,4 F,4!<)! |!>(! F,4 F,4 | F,4 !breath!F,4!>)! | D,4 D,4 | %6
w: A- do-|ro te,|A- do-|ro te,|sup- plex,|A- do-|
 A,,4 !breath!A,,4 | B,,6 A,,2 | G,,4 A,,4 |!>(! B,,4 B,,4!>)! | C,4 A,,4 | F,,4 F,,4 | %12
w: to te,|A- do-|ro te|la- tens|Dei- tas|Quae sub|
 F,,4"^cresc." F,4 | F,4 !breath!E,4 | A,4 A,4 | G,6 G,2 |!>(! C,8!>)! | z8 |!p! E,4 F,2 G,2 | %19
w: his fi-|gu- ris|ve- re|la- ti-|tas||Ti- bi se|
 B,2 B,2 A,4 | D4 D2 D2 | C4 !breath!C4 | (D2 C2) (B,2 A,2) | G,4 A,4 |!f!!<(! F,8!<)! | %25
w: cor me- um|to- tum sub-|ji- cit|qui- * a _|te con-|tem-|
 !breath!B,,8 |!>(! (A,,2 B,,2) (_E,2 D,2)!>)! |"^dim." C,8 |"^cédez" C,4 C,4 | %29
w: plans|to- * tum _|de-|fi- cit|
!pp!!<(! F,,4 F,,4!<)! |!>(! F,4 !breath!F,4!>)! |!<(! F,,4 F,,4!<)! |!>(! F,4 F,4!>)! | %33
w: A- do-|ro te,|A- do-|ro te,|
!<(! [F,,F,]8 | [F,,F,]8!<)! |!>(! [F,,F,]8- | [F,,F,]8 | [F,,F,]8- | [F,,F,]4!>)! z4 | %39
w: A-|do-|ro-||te|_|
!p! D,4 F,2 F,2 | G,4 G,4 | (B,2 A,2) (G,2 F,2) | E,6 E,2 | F,2 z2 z4 | z4"^cresc." (D2 C2) | %45
w: O me- mo-|ria- le|mor- * tis _|Do- mi-|ni|vi- *|
 (B,2 A,2) G,2 F,2 | E,3 E, E,4 |!f! A,4 G,4 | C,4 E,4 | F,4 !breath!E,4 | A,,4!>(! C,2 C,2 | %51
w: tam _ praes- tans|ho- mi- ni|Prae- sta|me- ae|men- ti|de te vi-|
 D,4!>)! C,4 |"^dim." F,4 F,4 | D,4 C,4 | F,8 | C,4 E,4 |!p! A,,4 E,4 | A,,4 E,4 | C,8 | %59
w: ve- re|Et te|il- li|sem-|per _|dul- ci|sa- pe-|re.|
"^a tempo"!pp! [F,,F,]8 | [F,,F,]8 |!<(! [F,,F,]4 [F,,F,]4!<)! | [F,,F,]8 |!>(! F,8!>)! | D,8 | %65
w: Je-|su|quem ve-|la-|tum,|Je-|
 A,,8 |"^dim." B,,6 A,,2 | G,,4 !breath!A,,4 | B,,4 B,,4 | C,3 B,, !breath!A,,4 |!mp! F,,4 F,,4 | %71
w: su|quem ve-|la- tum,|nunc as-|pi- ci- o|O- ro|
 F,,4"^cresc." F,4 | F,4 E,4 | A,4 A,4 | G,6 G,2 | C,8 | z8 |!p! E,4 (F,2 G,2) | B,4 !breath!A,4 | %79
w: fi- at|il- lud|quod tam|si- ti-|o||re- ve- *|la- ta|
!<(! D6!<)! D2 |!>(! C4 C2 C2!>)! | (D2 C2) (B,2 A,2) | G,4 A,4 |!<(! F,8!<)! | B,,8 | %85
w: cer- nens|fa- ci- e|vi- * su _|sim be-|a-|tus|
 (A,,2 B,,2) (_E,2 D,2) |"^rit. et dim." C,8 | C,4!>(! C,4!>)! |"^a tempo"!p! F,8 | F,8 | %90
w: tu- * ae _|glo-|ri- ae|A-|men,|
!<(! [F,,F,]8!<)! |!>(! [F,,F,]8!>)! |"^rit." [F,,F,]8- |"^dim." [F,,F,]8 | !fermata![F,,F,]8 |] %95
w: a-|men,|a-||men.|

